X:20b
T:Rock the Cradle Joe2
R:reel
C:Traditional
S:Ruffwater Fakebook
S:Jim Coon to CoMandoList TOW
D:Joyous Noise, Paint Creek Sampler, Fine Times at Lawnridge Hal
M:2/4
L:1/16
Q:1/4=120
K:D
|:"D"abag fdfg| abag fdfg| abag fed2| "Bm" [f4B4][f4B4] |!
"D"fgfe dAde| fgfe d2 f2 | "G"gfed "A7"cdec| "D"(d4d4):|!
|:"A7"A2B2c2A2| "D"d2 f6| "G"g2ga gfed| "D" (f4f4)|!
"A7"A2B2c2A2| "D"d2 f6| "G"gfed "A7"cdef| "D" (d4d4):|
